!!!!SEGMENT: pl-sa--l-1636--082_anonim--keyboard-piece.krn
!!!cenid: 17xx:789
!!!COM: Anonim
!!!COM-rismID: pe30004985
!!!CDT:
!!!CNT:
!!!OTL: [Keyboard piece]
!!!PDT:
!!!AGN: Secular
!!!YEC: Copyright 2022 Narodowy Instytut Fryderyka Chopina (https://polishscores.org)
!!!YEM: License CC-BY-4.0 (https://creativecommons.org/licenses/by/4.0)
!!!SMS-siglum: PL-SA
!!!SMS-shelfmark: L 1636
!!!SMS-shelfwork: 082 W
!!!SMS-variant:
!!!SMS-altvar:
!!!NIFC-rismSourceID: 1001077029
!!!NIFC-rismChildID: 1001077029
!!!NIFC-islandoraID:
!!!URL-pdf-islandora:
!!!URL-scan:
!!!IIIF:
!!!ONB-nifc: 29r, skan 0032, s. 1-4
!!!AIN: 1 empty
!!!key:
**kern	**kern
*part1	*part1
*staff2	*staff1
*Iempty	*Iempty
*I"[Keyboard]	*I"[Keyboard]
*clefC4	*clefC1
*k[]	*k[]
*G:	*G:
*M2/2	*M2/2
*met(c|)	*met(c|)
=1	=1
*	*^
2ryy	4dd\	4rcyy
.	4ee/	4g\
4ryy	4cc/	4a\
4d\	4dd/	4f#X\
=2	=2	=2
*^	*	*
4e/	4G\	4b/	4g\
4c/	4A\	4cc/	4e\
4d/	4F#X\	4a/	4f#X\
4B/	4G\	4b/	4d\
=3	=3	=3	=3
4c/	4E\	4g/	4e\
4A/	4A\	4cc/	4e\
4d/	4F#X\	4a/	4f#X\
4B/	4G\	4b/	4e\
=4	=4	=4	=4
4c/	4E\	4g/	2e\
4E/	4C\	4a/	.
4.A/	4.E\	4.f#X/	4.d\
8A/	8D\	8f#/	8d\
=5	=5	=5	=5
4B/	4G\	4g/	4d\
4r	4r	4dd/	4f#X\
2r	2rDyy	4b/	4g\
.	.	4cc#X/	4e\
!!LO:LB:g=original
=6	=6	=6	=6
*clefF4	*	*	*
4r	2rGGyy	4dd/	4f#X\
4A 4D/	.	4a/	4f#\
4D/	4BB\	4b/	4g\
4E/	4C#X\	4a/	4e\
=7	=7	=7	=7
*clefC4	*	*	*
4A/	4D\	4f#X/	4rcyy
4B/	4E\	4g#X/	4d\
4c#X/	4A\	4a/	4e\
4A/	4D\	4g#/	4c#X\
=8	=8	=8	=8
4d/	4D\	4f#X/	4A\
4d/	4F#X\	4dd/	4d\
4d/	4.A\	4.b/	[<4.e\
4e/	.	.	.
.	8A\	8cc#X/	8e\]
=9	=9	=9	=9
4d/	4D\	4dd/	4f#X\
4r	4rDyy	4a/	4re
2r	2rDyy	4b/	4d\
.	.	4g/	4e\
*clefF4	*	*	*
=10	=10	=10	=10
4A/	4ryy	4a/	4c#X\
4B/	4D\	4f#X/	4d\
4G/	4E\	4g/	4B\
4A/	4C#X\	4e/	4c#X\
=11	=11	=11	=11
4B/	4D\	4f#X/	4A\
4G/	4BB\	4d/	4B\
4E/	4E\	4g/	4B\
4A/	4C#X\	4e/	4c#X\
!!LO:LB:g=original
=12	=12	=12	=12
*clefC4	*	*	*
4F#X/	4D\	4f#X/	4A\
4d/	4F#\	4a/	4f#\
4B/	4G\	4b/	4d\
4c#X/	4C#X\	4a/	4e\
=13	=13	=13	=13
4A/	4D\	4f#X/	4rcyy
4B/	4G\	4g/	[<4d\
4.A/	2rDyy	2ryy	4d\]
.	.	.	4c#X\
8A/	.	.	.
=14	=14	=14	=14
4A/	4E\	4f#X/	4rcyy
4rB	4rF	4dd/	4d\
4rB	2rF	4cc/	4e\
4d/	.	4dd/	4f#X\
=15	=15	=15	=15
4e/	4G\	4b/	4g\
4c/	4A\	4cc/	4e\
4d/	4F#X\	4a/	4f#X\
4B/	4G\	4b/	4d\
=16	=16	=16	=16
4c/	4E\	4a/	[<4e\
4A/	4rFyy	4cc/	4e\]
4d/	4F#X\	4a/	4f#X\
4B/	4G\	4b/	4d\
=17	=17	=17	=17
*	*^	*	*
4c/	4E\	4reyy	4g/	[<4e\
4e/	4C\	4E/	4a/	4e\]
4.A/	4.D\	2reyy	4.f#X/	4.d\
8A/	8D\	.	8f#/	8d\
*	*v	*v	*	*
!!LO:LB:g=original
=18	=18	=18	=18
*	*^	*	*
4B/	4G\	2.yy	4g/	[<4d\
4B/	4G\	.	4b/	4d\]
4c/	4E\	.	4g/	4e\
4e/	4C\	4E/	4cc/	[<4g\
*	*v	*v	*	*
=19	=19	=19	=19
*	*2\right	*	*
4.d/	2D\	2a/	4g\]
.	.	.	4f#X\
8c/	.	.	.
4G/	2ryy	4g/	2reyy
4r	.	4rc	.
*v	*v	*	*
*	*v	*v
!LO:TX:a:t=P:||:problem=w źródle końcowa kreska taktowa 	!LO:TX:a:t=P:||:problem=w źródle końcowa kreska taktowa 
==;;	==;;
*-	*-
!!!system-decoration: s1,s2
!!!RDF**kern: > = above
!!!RDF**kern: < = below
!!!EED: Antoni Szymański
!!!EEV: 2020-12-08
!!!ENC: Marcin Jachim
!!!END: 2020-06-12
